X:1
T:Title
%%score [ 1 2 3 4 ]
L:1/8
Q:1/4=192
M:4/4
K:C
V:1 treble nm="Superius"
V:2 bass-8 nm="Contratenor"
V:3 alto nm="Tenor"
V:4 tenor nm="Bassus"
V:1
 z16 ||[K:G][M:2/2] z8 | B4 A4 | B2 G2 G2 F2 | G3 G A3 B |[M:3/2] c2 B4 AG F2 G2 | A4 B8 | %7
w: ||1.Vi los|bar- cos ma- dre|(vi los bar- cos|ma- dre, vi- los bar- cos|ma- dre.)|
w: ||4.Sys ca-|mi- sas ma- dre|(sys ca- mi- sas|ma- dre, sys ca- mi- sas|ma- dre.)|
[M:2/2] z2 B2 B2 B2 | c4 (B4 | A2 G2) F4 | G8 | z2 B2 A2 B2 | c4 A2 B2 | E2 G4 F2 | G2 (B4 AG) | %15
w: Vi los y|no me|* * va-|len|Vi los y|no me va-|len, vi- los|y no * *|
w: ||||||||
 F2 (G4 F2) | G8!fine! |: B4 A4 | G4 F4 | G2 (B4 AG | F2 G4 F2) | G8 | A4 B4 | A2 (G4 F2) | %24
w: me va- *|len|2.Ma- dre|tres mo-|çu- e * *||las|non de|a ques- ta|
w: ||3.En a-|guas cor-|ri- en- * *||tes|la- van|sys ca- *|
 (G3 A Bc) B2- | BA (c3 B)(AG) | F2 (G4 F2) | G8!D.C.! :| %28
w: vil- * * * la,|* non de a ques- *|ta vil- *|la|
w: mi- * * * sas,|* la- van * sys *|ca- mi- *|sas,|
V:2
 z16 ||[K:G][M:2/2][K:treble] z8 | z8 | B,4 A,4 | B,2 (G,4 F,2) |[M:3/2] (G,3 A, B,2 C2) (D4 | %6
w: |||1.Vi los|bar- cos *|ma- * * * dre|
w: |||4.Sys ca-|mi- sas *|ma- * * * dre|
 E2) F2 G2 D2 D2 D2 |[M:2/2] E2 D2 G4 | G2 G2 G3 F | (E2 D2) D4 | z2 D2 D2 D2 | E2 (G2 F2) F2 | %12
w: * (ma- dre.) Vi los y|no me va-|len y no me|va- * len|Vi los y|no me * va-|
w: * (ma- dre.) * * *||||||
 G4 z2 G,2 | A,2 (B,C DE) F2 | E2 (D4 C2) | D8- | D8 |: D4 D4 | D4 D4 | B,4 C4 | D8- | D8 | %22
w: len, vi-|los y * * * no|me va- *|len||2.Ma- dre|tres mo-|çu- e|las||
w: |||||3.En a-|guas cor-|ri- en-|tes||
 z4 B,4 | C4 A,4 | G,2 (G4 F2 | E2) (D4 C2) | D8- | D8 :| %28
w: non|de a|ques- ta *|* vil- *|la||
w: la-|van sys|ca- mi- *||sas.||
V:3
 z16 ||[K:G][M:2/2][K:treble-8] z8 | z8 | z8 | B4 A4 |[M:3/2] G6 (G2 A2 B2) | c4 B8 | %7
w: ||||1.Vi los|bar- cos * *|ma- dre|
w: ||||4.Sys ca-|mi- sas * *|ma- dre|
[M:2/2] z2 d2 d2 d2 | e6 (d2 | c2 B2) A4 | G8 | z2 d2 d2 d2 | e6 (d2 | c2 B2) A4 | G8 | A8 | G8 |: %17
w: Vi los y|no me|* * va-|len|Vi los y|no me|* * va-|len.|||
w: ||||||||||
 z8 | B4 A4 | G6 G2 | A8 | B8 | d4 d2 d2 | (e4 e2) (d2- | d2 c2 d4) | (G8 | A8 | G8) :| %28
w: |2.Ma- dre|tres mo-|çue|las|non de a|ques- ta vil-||la.|||
w: |3.En a-|guas cor-|rien-|tes|la- van sys|ca- * mi-||sas.|||
V:4
 E8 D8 ||[K:G][M:2/2][K:bass] B,4 A,4 | B,2 (G,4 F,2) | G,4 D,4 | z2 G,,2 D,2 D,2 | %5
w: Vi los|1.Vi los|bar- cos *|ma- dre|(vi los bar-|
w: |4.Sys ca-|mi- sas *|ma- dre|(sys ca- mi-|
[M:3/2] E,4 (E,4 D,2) B,,2 | A,,4 G,,2 B,2 B,2 B,2 |[M:2/2] (C2 B,A, G,F,E,D,) | %8
w: cos ma- * dre,|ma- dre.) Vi los y|no * * * * * *|
w: sas ma- * dre,|ma- dre.) * * *||
 (C,3 D, E,F, G,2) | (C,2 G,2) D,4 | z2 B,2 B,2 B,2 | C2 G,2 (D,2 G,2) | C,2 C,4 B,,2 | %13
w: me * * * *|va- * len|Vi los y|no me va- *|len, (no me|
w: |||||
 A,,2 G,,2 D,4 | (E,8 | D,8 | G,,8) |: G,4 F,4 | G,4 D,4 | E,6 E,2 | D,8 | (G,6 F,E, | D,4) G,4 | %23
w: * * va-|len)|||2.Ma- dre|tres mo-|çu- e|las|non * *|* de|
w: ||||3.En a-|guas cor-|ri- en-|tes|la- * *|* van|
 C,4 (C,2 D,2) | (E,4 D,4) | (E,8 | D,8 | G,,8) :| %28
w: a ques- ta|vil- *|la.|||
w: sys ca- *|mi- *|sas,|||

